src/parts/graphicShirt/Hola.svg

<svg>
  <g
    id="Clothing/Graphic-Shirt"
    transform="translate(0.000000, 170.000000)"
  >
    <defs>
      <path
        id="react-path-1153"
        d="M165.624032,29.2681342 C202.760022,32.1373245 232,63.1798426 232,101.051724 L232,110 L32,110 L32,101.051724 C32,62.8348009 61.7752018,31.5722494 99.3929298,29.1967444 C99.1342224,30.2735458 99,31.3767131 99,32.5 C99,44.3741221 113.998461,54 132.5,54 C151.001539,54 166,44.3741221 166,32.5 C166,31.4015235 165.871641,30.3222877 165.624025,29.2681336 Z"
      />
    </defs>
    <mask
      id="react-mask-1154"
      fill="white"
    >
      <use href="#react-path-1153" />
    </mask>
    <use
      id="Clothes"
      fill="#E6E6E6"
      fill-rule="evenodd"
      href="#react-path-1153"
    />
    <g
      id="Color/Palette/"
      mask="url(#react-mask-1154)"
      fill-rule="evenodd"
      fill="var(--avataaar-shirt-color)"
    >
      <rect
        id="Color"
        x="0"
        y="0"
        width="264"
        height="110"
      />
    </g>
    <g
      id="Clothing/Graphic/Hola"
      fill-rule="evenodd"
      fill="#FFFFFF"
    >
      <g
        id="Hola"
        transform="translate(77.000000, 58.000000)"
      >
        <path d="M74.6371722,16.9479681 C75.917206,22.7098952 73.7328313,28.1917851 69.3072818,31.9519351 C67.2267705,33.7200766 64.8728066,35.0262382 62.2514759,35.7865716 C60.7921156,36.2102906 59.2674351,36.5090512 57.7541146,36.6572104 C56.61811,36.7683298 54.9700918,36.2570992 53.9631048,36.5456839 C52.8441403,36.8672382 51.4050658,38.4111058 50.2065809,38.9084974 C49.535121,39.1873134 48.8385068,39.4319389 48.1390525,39.6350472 C46.6326292,40.0734193 45.0742742,40.3689236 43.5256565,40.611514 C41.9242956,40.8622449 35.2433712,41.9140123 36.070626,38.9752504 C36.3550329,37.9641861 39.1816559,36.4707903 39.7950984,35.791049 C40.2486888,35.288773 42.9398027,32.427347 42.8140307,31.4960606 C42.7742705,31.2021844 41.0666121,29.8650885 40.6657648,29.4157265 C39.7573668,28.3973356 38.9041462,27.3581862 38.4205328,26.0646425 C37.5920608,23.8487672 37.6354724,21.0667121 37.9105478,18.7446017 C38.5986421,12.9407505 41.476791,9.08616941 46.5133487,6.19584415 C49.3679661,4.55795247 52.4720988,3.65678642 55.718232,3.26074551 C59.6739625,2.77841409 62.8279982,2.76294692 66.1848919,5.01097768 C70.6051671,7.97090519 73.4601902,11.6785482 74.6371722,16.9479681 Z M69.5056769,23.9358717 C70.5917785,23.6358901 69.1977385,20.8827342 68.427284,22.2161669 C68.1497742,22.6968702 68.8902058,24.1047895 69.5056769,23.9358717 Z M67.6848238,18.6143519 C67.7728641,18.973353 68.1185341,19.0836583 68.4325583,19.0405131 C69.182727,18.9371273 68.7125023,18.059976 68.7340052,17.6684125 C68.7741711,16.9194759 68.8407085,15.0292252 68.5619816,14.3474487 C68.0491567,13.0942011 67.5866405,13.3339422 67.2884393,14.5615469 C67.0210725,15.6617509 67.4109655,17.5092635 67.6848238,18.6143519 Z M66.6372652,22.892652 C67.4795315,22.3952604 65.2570196,16.7171816 64.7685376,15.9051553 C62.8770898,12.7604359 62.2652702,18.3363499 61.9751833,19.714149 C61.8498171,20.310856 60.4574,26.4960951 62.3135504,24.5020515 C63.3047144,23.4376661 61.755691,19.900162 64.5567538,20.7227711 C65.540615,21.0117629 64.8289892,20.9287287 65.4314774,21.8315228 C65.6517812,22.1616248 65.8887193,23.3326522 66.6372652,22.892652 Z M60.2947079,21.5987013 C61.0809854,20.2481733 57.6303713,20.8778498 57.2327696,20.9022717 C57.3268957,19.1027888 57.6782457,17.2792911 57.6733771,15.4798082 C57.67216,15.0052104 57.8380978,13.2887618 56.7146704,14.0987529 C56.2606742,14.4264127 56.4168749,15.9283561 56.3787376,16.3789391 C56.2886686,17.436405 55.4313908,21.0858425 56.2708171,21.9381649 C56.8660024,22.5421985 59.9640494,22.1587756 60.2947079,21.5987013 Z M55.4961584,19.1587406 C55.8337431,17.8148148 55.4118876,14.9057989 53.6512301,14.8794474 C53.0382604,14.8705068 53.3156518,15.7104604 53.164165,15.7984555 C52.0992431,16.4200683 51.6357538,16.3414844 51.0047261,17.4454234 C48.5177346,21.7957715 54.0705776,24.8897184 55.4961584,19.1587406 Z M49.4685836,22.9899323 C50.2301124,22.7799045 50.0146773,13.0115738 49.1375194,13.0062824 C47.6286618,12.9977348 49.0750392,17.8462849 48.5033854,18.49672 C48.3321733,18.6916877 47.4769241,18.5109661 47.2529689,18.5520762 C46.1129071,18.7637322 45.3623326,18.6444722 45.0126054,17.9464145 C44.7014213,17.3265067 45.3736926,13.0661159 43.7552917,15.1562188 C43.7698975,15.8937585 43.7816632,16.6317052 43.7901833,17.3692449 C44.1261161,18.0843979 44.0007498,18.5195137 43.4136789,18.6754065 C43.3844673,19.14512 43.8056005,19.5387187 43.8108748,19.6921693 C43.8360292,20.4630855 43.3268557,23.9232538 44.7111585,23.7563712 C45.5960249,23.6493221 45.0316741,20.2746303 45.0280226,19.7255458 C46.1705187,19.7532239 47.3673807,19.8806245 48.5033854,19.7336864 C48.5086597,20.1610687 48.2149214,23.3367225 49.4685836,22.9899323 Z M63.8368644,17 C64.2706568,17.6069046 64.6557203,18.2184508 65,18.8421816 C64.3342161,18.8990426 63.6679025,18.9518422 63,19 C63.2722458,18.332463 63.5439619,17.664926 63.8368644,17 Z M53.9230169,17 C54.0684325,17.4229772 54.1789882,20.2877939 52.5679624,19.9763934 C51.6476608,19.7985469 52.0614978,18.2121289 52.3219511,17.8848372 C52.8722396,17.1947521 53.1949428,17.4368397 53.9230169,17 Z" />
      </g>
    </g>
  </g>
</svg>

<svg>
  <g id="Clothing/Graphic-Shirt" transform="translate(0 170)">
    <defs>
      <path id="react-path-1153" d="M165.624 29.268C202.76 32.138 232 63.18 232 101.052V110H32v-8.948c0-38.217 29.775-69.48 67.393-71.855A14.107 14.107 0 0 0 99 32.5C99 44.374 113.998 54 132.5 54c18.502 0 33.5-9.626 33.5-21.5 0-1.098-.128-2.178-.376-3.232Z"/>
    </defs>
    <mask id="react-mask-1154" fill="#fff">
      <use href="#react-path-1153"/>
    </mask>
    <use id="Clothes" fill="#E6E6E6" fill-rule="evenodd" href="#react-path-1153"/>
    <g id="Color/Palette/" fill="var(--avataaar-shirt-color)" fill-rule="evenodd" mask="url(#react-mask-1154)">
      <path id="Color" d="M0 0h264v110H0z"/>
    </g>
    <g id="Clothing/Graphic/Hola" fill="#FFF" fill-rule="evenodd">
      <path id="Hola" d="M74.637 16.948c1.28 5.762-.904 11.244-5.33 15.004-2.08 1.768-4.434 3.074-7.056 3.835a25.006 25.006 0 0 1-4.497.87c-1.136.111-2.784-.4-3.79-.111-1.12.321-2.559 1.865-3.757 2.362a19.85 19.85 0 0 1-2.068.727c-1.506.438-3.065.734-4.613.977-1.602.25-8.283 1.302-7.455-1.637.284-1.01 3.11-2.504 3.724-3.184.454-.502 3.145-3.364 3.019-4.295-.04-.294-1.747-1.63-2.148-2.08-.909-1.019-1.762-2.058-2.245-3.351-.829-2.216-.786-4.998-.51-7.32.688-5.804 3.566-9.659 8.602-12.55 2.855-1.637 5.96-2.538 9.205-2.934 3.956-.483 7.11-.498 10.467 1.75 4.42 2.96 7.275 6.668 8.452 11.937Zm-5.131 6.988c1.086-.3-.308-3.053-1.079-1.72-.277.48.463 1.889 1.079 1.72Zm-1.821-5.322c.088.36.434.47.748.427.75-.104.28-.981.301-1.373.04-.749.107-2.639-.172-3.32-.513-1.254-.975-1.014-1.274.214-.267 1.1.123 2.947.397 4.052Zm-1.048 4.279c.843-.498-1.38-6.176-1.868-6.988-1.892-3.145-2.504 2.431-2.794 3.81-.125.596-1.518 6.781.339 4.787.99-1.064-.558-4.602 2.243-3.78.984.29.272.207.874 1.11.22.33.458 1.5 1.206 1.06Zm-6.342-1.294c.786-1.35-2.665-.721-3.062-.697.094-1.8.445-3.623.44-5.422 0-.475.165-2.191-.958-1.381-.454.327-.298 1.83-.336 2.28-.09 1.057-.948 4.707-.108 5.56.595.603 3.693.22 4.024-.34Zm-4.799-2.44c.338-1.344-.084-4.253-1.845-4.28-.613-.008-.335.831-.487.92-1.065.621-1.528.542-2.16 1.646-2.486 4.35 3.067 7.445 4.492 1.714Zm-6.027 3.83c.761-.21.546-9.977-.331-9.983-1.51-.008-.063 4.84-.635 5.49-.17.196-1.026.015-1.25.056-1.14.212-1.89.092-2.24-.606-.312-.62.36-4.88-1.258-2.79.015.738.027 1.476.035 2.213.336.715.21 1.15-.376 1.306-.03.47.392.864.397 1.017.025.771-.484 4.231.9 4.064.885-.107.32-3.481.317-4.03 1.143.027 2.34.155 3.475.008.006.427-.288 3.603.966 3.256ZM63.837 17A18.7 18.7 0 0 1 65 18.842c-.666.057-1.332.11-2 .158.272-.668.544-1.335.837-2Zm-9.914 0c.145.423.256 3.288-1.355 2.976-.92-.177-.507-1.764-.246-2.091.55-.69.873-.448 1.601-.885Z" transform="translate(77 58)"/>
    </g>
  </g>
</svg>
